; generated by PrusaSlicer 2.3.0+win64 on 2021-01-21 at 22:51:09 UTC

; 

; external perimeters extrusion width = 0.45mm
; perimeters extrusion width = 0.45mm
; infill extrusion width = 0.45mm
; solid infill extrusion width = 0.45mm
; top infill extrusion width = 0.40mm
; first layer extrusion width = 0.42mm

; external perimeters extrusion width = 0.45mm
; perimeters extrusion width = 0.45mm
; infill extrusion width = 0.45mm
; solid infill extrusion width = 0.45mm
; top infill extrusion width = 0.40mm
; first layer extrusion width = 0.42mm

M107
G10 S225 P0 ; set temperature
G10 S225 P1 ; set temperature
;TYPE:Custom
T-1
G10 R225 P0 ;  Warmup T0
M140 S60
G28;
G29 S1; enable mesh
G10 P0 R170
G10 P1 R170
G10 P2 R170
G10 P3 R170
T0
G10 R225 P0 ;  Warmup T0
G90
G1 X150 Y100 Z10 ; move to middle
G10 S225 P0 ; set temperature
M116 ; wait for temperature to be reached
G10 S225 P1 ; set temperature
M116 ; wait for temperature to be reached
G21 ; set units to millimeters
G90 ; use absolute coordinates
M83 ; use relative distances for extrusion
;T0
G10 R170 P0 ;  Restore T0
T0
; Filament-specific start gcode
;LAYER_CHANGE
;Z:0.25
;HEIGHT:0.25
;BEFORE_LAYER_CHANGE
G92 E0.0
;0.25

G1 Z0.250 F9000.000
G1 E-3.50000 F21000.000
G1 Z0.750 F9000.000
G1 X97.018 Y75.184
G1 Z0.250
G1 E3.50000 F18000.000
M204 S700
;TYPE:Solid infill
;WIDTH:0.421297
G1 F1200.000
G1 X146.817 Y75.184 E1.80778
G1 X146.817 Y75.552 E0.01335
G1 X97.183 Y75.552 E1.80179
G1 X97.183 Y75.919 E0.01335
G1 X146.817 Y75.919 E1.80179
G1 X146.817 Y76.287 E0.01335
G1 X97.183 Y76.287 E1.80179
G1 X97.183 Y76.654 E0.01335
G1 X146.817 Y76.654 E1.80179
G1 X146.817 Y77.022 E0.01335
G1 X97.183 Y77.022 E1.80179
G1 X97.183 Y77.390 E0.01335
G1 X146.817 Y77.390 E1.80179
G1 X146.817 Y77.757 E0.01335
G1 X97.183 Y77.757 E1.80179
G1 X97.183 Y78.125 E0.01335
G1 X146.817 Y78.125 E1.80179
G1 X146.817 Y78.493 E0.01335
G1 X97.183 Y78.493 E1.80179
G1 X97.183 Y78.860 E0.01335
G1 X146.817 Y78.860 E1.80179
G1 X146.817 Y79.228 E0.01335
G1 X97.183 Y79.228 E1.80179
G1 X97.183 Y79.596 E0.01335
G1 X146.817 Y79.596 E1.80179
G1 X146.817 Y79.963 E0.01335
G1 X97.183 Y79.963 E1.80179
G1 X97.183 Y80.331 E0.01335
G1 X146.817 Y80.331 E1.80179
G1 X146.817 Y80.699 E0.01335
G1 X97.183 Y80.699 E1.80179
G1 X97.183 Y81.066 E0.01335
G1 X146.817 Y81.066 E1.80179
G1 X146.817 Y81.434 E0.01335
G1 X97.183 Y81.434 E1.80179
G1 X97.183 Y81.802 E0.01335
G1 X146.817 Y81.802 E1.80179
G1 X146.817 Y82.169 E0.01335
G1 X97.183 Y82.169 E1.80179
G1 X97.183 Y82.537 E0.01335
G1 X146.817 Y82.537 E1.80179
G1 X146.817 Y82.904 E0.01335
G1 X97.183 Y82.904 E1.80179
G1 X97.183 Y83.272 E0.01335
G1 X146.817 Y83.272 E1.80179
G1 X146.817 Y83.640 E0.01335
G1 X97.183 Y83.640 E1.80179
G1 X97.183 Y84.007 E0.01335
G1 X146.817 Y84.007 E1.80179
G1 X146.817 Y84.375 E0.01335
G1 X97.183 Y84.375 E1.80179
G1 X97.183 Y84.743 E0.01335
G1 X146.817 Y84.743 E1.80179
G1 X146.817 Y85.110 E0.01335
G1 X97.183 Y85.110 E1.80179
G1 X97.183 Y85.478 E0.01335
G1 X146.817 Y85.478 E1.80179
G1 X146.817 Y85.846 E0.01335
G1 X97.183 Y85.846 E1.80179
G1 X97.183 Y86.213 E0.01335
G1 X146.817 Y86.213 E1.80179
G1 X146.817 Y86.581 E0.01335
G1 X97.183 Y86.581 E1.80179
G1 X97.183 Y86.949 E0.01335
G1 X146.817 Y86.949 E1.80179
G1 X146.817 Y87.316 E0.01335
G1 X97.183 Y87.316 E1.80179
G1 X97.183 Y87.684 E0.01335
G1 X146.817 Y87.684 E1.80179
G1 X146.817 Y88.052 E0.01335
G1 X97.183 Y88.052 E1.80179
G1 X97.183 Y88.419 E0.01335
G1 X146.817 Y88.419 E1.80179
G1 X146.817 Y88.787 E0.01335
G1 X97.183 Y88.787 E1.80179
G1 X97.183 Y89.154 E0.01335
G1 X146.817 Y89.154 E1.80179
G1 X146.817 Y89.522 E0.01335
G1 X97.183 Y89.522 E1.80179
G1 X97.183 Y89.890 E0.01335
G1 X146.817 Y89.890 E1.80179
G1 X146.817 Y90.257 E0.01335
G1 X97.183 Y90.257 E1.80179
G1 X97.183 Y90.625 E0.01335
G1 X146.817 Y90.625 E1.80179
G1 X146.817 Y90.993 E0.01335
G1 X97.183 Y90.993 E1.80179
G1 X97.183 Y91.360 E0.01335
G1 X146.817 Y91.360 E1.80179
G1 X146.817 Y91.728 E0.01335
G1 X97.183 Y91.728 E1.80179
G1 X97.183 Y92.096 E0.01335
G1 X146.817 Y92.096 E1.80179
G1 X146.817 Y92.463 E0.01335
G1 X97.183 Y92.463 E1.80179
G1 X97.183 Y92.831 E0.01335
G1 X146.817 Y92.831 E1.80179
G1 X146.817 Y93.199 E0.01335
G1 X97.183 Y93.199 E1.80179
G1 X97.183 Y93.566 E0.01335
G1 X146.817 Y93.566 E1.80179
G1 X146.817 Y93.934 E0.01335
G1 X97.183 Y93.934 E1.80179
G1 X97.183 Y94.302 E0.01335
G1 X146.817 Y94.302 E1.80179
G1 X146.817 Y94.669 E0.01335
G1 X97.183 Y94.669 E1.80179
G1 X97.183 Y95.037 E0.01335
G1 X146.817 Y95.037 E1.80179
G1 X146.817 Y95.404 E0.01335
G1 X97.183 Y95.404 E1.80179
G1 X97.183 Y95.772 E0.01335
G1 X146.817 Y95.772 E1.80179
G1 X146.817 Y96.140 E0.01335
G1 X97.183 Y96.140 E1.80179
G1 X97.183 Y96.507 E0.01335
G1 X146.817 Y96.507 E1.80179
G1 X146.817 Y96.875 E0.01335
G1 X97.183 Y96.875 E1.80179
G1 X97.183 Y97.243 E0.01335
G1 X146.817 Y97.243 E1.80179
G1 X146.817 Y97.610 E0.01335
G1 X97.183 Y97.610 E1.80179
G1 X97.183 Y97.978 E0.01335
G1 X146.817 Y97.978 E1.80179
G1 X146.817 Y98.346 E0.01335
G1 X97.183 Y98.346 E1.80179
G1 X97.183 Y98.713 E0.01335
G1 X146.817 Y98.713 E1.80179
G1 X146.817 Y99.081 E0.01335
G1 X97.183 Y99.081 E1.80179
G1 X97.183 Y99.449 E0.01335
G1 X146.817 Y99.449 E1.80179
G1 X146.817 Y99.816 E0.01335
G1 X97.183 Y99.816 E1.80179
G1 X97.183 Y100.184 E0.01335
G1 X146.817 Y100.184 E1.80179
G1 X146.817 Y100.552 E0.01335
G1 X97.183 Y100.552 E1.80179
G1 X97.183 Y100.919 E0.01335
G1 X146.817 Y100.919 E1.80179
G1 X146.817 Y101.287 E0.01335
G1 X97.183 Y101.287 E1.80179
G1 X97.183 Y101.654 E0.01335
G1 X146.817 Y101.654 E1.80179
G1 X146.817 Y102.022 E0.01335
G1 X97.183 Y102.022 E1.80179
G1 X97.183 Y102.390 E0.01335
G1 X146.817 Y102.390 E1.80179
G1 X146.817 Y102.757 E0.01335
G1 X97.183 Y102.757 E1.80179
G1 X97.183 Y103.125 E0.01335
G1 X146.817 Y103.125 E1.80179
G1 X146.817 Y103.493 E0.01335
G1 X97.183 Y103.493 E1.80179
G1 X97.183 Y103.860 E0.01335
G1 X146.817 Y103.860 E1.80179
G1 X146.817 Y104.228 E0.01335
G1 X97.183 Y104.228 E1.80179
G1 X97.183 Y104.596 E0.01335
G1 X146.817 Y104.596 E1.80179
G1 X146.817 Y104.963 E0.01335
G1 X97.183 Y104.963 E1.80179
G1 X97.183 Y105.331 E0.01335
G1 X146.817 Y105.331 E1.80179
G1 X146.817 Y105.699 E0.01335
G1 X97.183 Y105.699 E1.80179
G1 X97.183 Y106.066 E0.01335
G1 X146.817 Y106.066 E1.80179
G1 X146.817 Y106.434 E0.01335
G1 X97.183 Y106.434 E1.80179
G1 X97.183 Y106.802 E0.01335
G1 X146.817 Y106.802 E1.80179
G1 X146.817 Y107.169 E0.01335
G1 X97.183 Y107.169 E1.80179
G1 X97.183 Y107.537 E0.01335
G1 X146.817 Y107.537 E1.80179
G1 X146.817 Y107.904 E0.01335
G1 X97.183 Y107.904 E1.80179
G1 X97.183 Y108.272 E0.01335
G1 X146.817 Y108.272 E1.80179
G1 X146.817 Y108.640 E0.01335
G1 X97.183 Y108.640 E1.80179
G1 X97.183 Y109.007 E0.01335
G1 X146.817 Y109.007 E1.80179
G1 X146.817 Y109.375 E0.01335
G1 X97.183 Y109.375 E1.80179
G1 X97.183 Y109.743 E0.01335
G1 X146.817 Y109.743 E1.80179
G1 X146.817 Y110.110 E0.01335
G1 X97.183 Y110.110 E1.80179
G1 X97.183 Y110.478 E0.01335
G1 X146.817 Y110.478 E1.80179
G1 X146.817 Y110.846 E0.01335
G1 X97.183 Y110.846 E1.80179
G1 X97.183 Y111.213 E0.01335
G1 X146.817 Y111.213 E1.80179
G1 X146.817 Y111.581 E0.01335
G1 X97.183 Y111.581 E1.80179
G1 X97.183 Y111.949 E0.01335
G1 X146.817 Y111.949 E1.80179
G1 X146.817 Y112.316 E0.01335
G1 X97.183 Y112.316 E1.80179
G1 X97.183 Y112.684 E0.01335
G1 X146.817 Y112.684 E1.80179
G1 X146.817 Y113.052 E0.01335
G1 X97.183 Y113.052 E1.80179
G1 X97.183 Y113.419 E0.01335
G1 X146.817 Y113.419 E1.80179
G1 X146.817 Y113.787 E0.01335
G1 X97.183 Y113.787 E1.80179
G1 X97.183 Y114.154 E0.01335
G1 X146.817 Y114.154 E1.80179
G1 X146.817 Y114.522 E0.01335
G1 X97.183 Y114.522 E1.80179
G1 X97.183 Y114.890 E0.01335
G1 X146.817 Y114.890 E1.80179
G1 X146.817 Y115.257 E0.01335
G1 X97.183 Y115.257 E1.80179
G1 X97.183 Y115.625 E0.01335
G1 X146.817 Y115.625 E1.80179
G1 X146.817 Y115.993 E0.01335
G1 X97.183 Y115.993 E1.80179
G1 X97.183 Y116.360 E0.01335
G1 X146.817 Y116.360 E1.80179
G1 X146.817 Y116.728 E0.01335
G1 X97.183 Y116.728 E1.80179
G1 X97.183 Y117.096 E0.01335
G1 X146.817 Y117.096 E1.80179
G1 X146.817 Y117.463 E0.01335
G1 X97.183 Y117.463 E1.80179
G1 X97.183 Y117.831 E0.01335
G1 X146.817 Y117.831 E1.80179
G1 X146.817 Y118.199 E0.01335
G1 X97.183 Y118.199 E1.80179
G1 X97.183 Y118.566 E0.01335
G1 X146.817 Y118.566 E1.80179
G1 X146.817 Y118.934 E0.01335
G1 X97.183 Y118.934 E1.80179
G1 X97.183 Y119.302 E0.01335
G1 X146.817 Y119.302 E1.80179
G1 X146.817 Y119.669 E0.01335
G1 X97.183 Y119.669 E1.80179
G1 X97.183 Y120.037 E0.01335
G1 X146.817 Y120.037 E1.80179
G1 X146.817 Y120.404 E0.01335
G1 X97.183 Y120.404 E1.80179
G1 X97.183 Y120.772 E0.01335
G1 X146.817 Y120.772 E1.80179
G1 X146.817 Y121.140 E0.01335
G1 X97.183 Y121.140 E1.80179
G10 R225 P1 ;  Warmup T1
G1 X97.183 Y121.507 E0.01335
G1 X146.817 Y121.507 E1.80179
G1 X146.817 Y121.875 E0.01335
G1 X97.183 Y121.875 E1.80179
G1 X97.183 Y122.243 E0.01335
G1 X146.817 Y122.243 E1.80179
G1 X146.817 Y122.610 E0.01335
G1 X97.183 Y122.610 E1.80179
G1 X97.183 Y122.978 E0.01335
G1 X146.817 Y122.978 E1.80179
G1 X146.817 Y123.346 E0.01335
G1 X97.183 Y123.346 E1.80179
G1 X97.183 Y123.713 E0.01335
G1 X146.817 Y123.713 E1.80179
G1 X146.817 Y124.081 E0.01335
G1 X97.183 Y124.081 E1.80179
G1 X97.183 Y124.449 E0.01335
G1 X146.817 Y124.449 E1.80179
G1 X146.817 Y124.816 E0.01335
G1 X97.018 Y124.816 E1.80778
G1 Z0.750 F9000.000
; Filament-specific end gcode
;T1
G10 R170 P0 ;  Restore T0
T1
; Filament-specific start gcode
G1 E-3.00000 F21000.000
G1 X153.018 Y75.184 F9000.000
G1 Z0.250
G1 E3.00000 F18000.000
G1 F1200.000
G1 X202.817 Y75.184 E1.80778
G1 X202.817 Y75.552 E0.01335
G1 X153.183 Y75.552 E1.80179
G1 X153.183 Y75.919 E0.01335
G1 X202.817 Y75.919 E1.80179
G1 X202.817 Y76.287 E0.01335
G1 X153.183 Y76.287 E1.80179
G1 X153.183 Y76.654 E0.01335
G1 X202.817 Y76.654 E1.80179
G1 X202.817 Y77.022 E0.01335
G1 X153.183 Y77.022 E1.80179
G1 X153.183 Y77.390 E0.01335
G1 X202.817 Y77.390 E1.80179
G1 X202.817 Y77.757 E0.01335
G1 X153.183 Y77.757 E1.80179
G1 X153.183 Y78.125 E0.01335
G1 X202.817 Y78.125 E1.80179
G1 X202.817 Y78.493 E0.01335
G1 X153.183 Y78.493 E1.80179
G1 X153.183 Y78.860 E0.01335
G1 X202.817 Y78.860 E1.80179
G1 X202.817 Y79.228 E0.01335
G1 X153.183 Y79.228 E1.80179
G1 X153.183 Y79.596 E0.01335
G1 X202.817 Y79.596 E1.80179
G1 X202.817 Y79.963 E0.01335
G1 X153.183 Y79.963 E1.80179
G1 X153.183 Y80.331 E0.01335
G1 X202.817 Y80.331 E1.80179
G1 X202.817 Y80.699 E0.01335
G1 X153.183 Y80.699 E1.80179
G1 X153.183 Y81.066 E0.01335
G1 X202.817 Y81.066 E1.80179
G1 X202.817 Y81.434 E0.01335
G1 X153.183 Y81.434 E1.80179
G1 X153.183 Y81.802 E0.01335
G1 X202.817 Y81.802 E1.80179
G1 X202.817 Y82.169 E0.01335
G1 X153.183 Y82.169 E1.80179
G1 X153.183 Y82.537 E0.01335
G1 X202.817 Y82.537 E1.80179
G1 X202.817 Y82.904 E0.01335
G1 X153.183 Y82.904 E1.80179
G1 X153.183 Y83.272 E0.01335
G1 X202.817 Y83.272 E1.80179
G1 X202.817 Y83.640 E0.01335
G1 X153.183 Y83.640 E1.80179
G1 X153.183 Y84.007 E0.01335
G1 X202.817 Y84.007 E1.80179
G1 X202.817 Y84.375 E0.01335
G1 X153.183 Y84.375 E1.80179
G1 X153.183 Y84.743 E0.01335
G1 X202.817 Y84.743 E1.80179
G1 X202.817 Y85.110 E0.01335
G1 X153.183 Y85.110 E1.80179
G1 X153.183 Y85.478 E0.01335
G1 X202.817 Y85.478 E1.80179
G1 X202.817 Y85.846 E0.01335
G1 X153.183 Y85.846 E1.80179
G1 X153.183 Y86.213 E0.01335
G1 X202.817 Y86.213 E1.80179
G1 X202.817 Y86.581 E0.01335
G1 X153.183 Y86.581 E1.80179
G1 X153.183 Y86.949 E0.01335
G1 X202.817 Y86.949 E1.80179
G1 X202.817 Y87.316 E0.01335
G1 X153.183 Y87.316 E1.80179
G1 X153.183 Y87.684 E0.01335
G1 X202.817 Y87.684 E1.80179
G1 X202.817 Y88.052 E0.01335
G1 X153.183 Y88.052 E1.80179
G1 X153.183 Y88.419 E0.01335
G1 X202.817 Y88.419 E1.80179
G1 X202.817 Y88.787 E0.01335
G1 X153.183 Y88.787 E1.80179
G1 X153.183 Y89.154 E0.01335
G1 X202.817 Y89.154 E1.80179
G1 X202.817 Y89.522 E0.01335
G1 X153.183 Y89.522 E1.80179
G1 X153.183 Y89.890 E0.01335
G1 X202.817 Y89.890 E1.80179
G1 X202.817 Y90.257 E0.01335
G1 X153.183 Y90.257 E1.80179
G1 X153.183 Y90.625 E0.01335
G1 X202.817 Y90.625 E1.80179
G1 X202.817 Y90.993 E0.01335
G1 X153.183 Y90.993 E1.80179
G1 X153.183 Y91.360 E0.01335
G1 X202.817 Y91.360 E1.80179
G1 X202.817 Y91.728 E0.01335
G1 X153.183 Y91.728 E1.80179
G1 X153.183 Y92.096 E0.01335
G1 X202.817 Y92.096 E1.80179
G1 X202.817 Y92.463 E0.01335
G1 X153.183 Y92.463 E1.80179
G1 X153.183 Y92.831 E0.01335
G1 X202.817 Y92.831 E1.80179
G1 X202.817 Y93.199 E0.01335
G1 X153.183 Y93.199 E1.80179
G1 X153.183 Y93.566 E0.01335
G1 X202.817 Y93.566 E1.80179
G1 X202.817 Y93.934 E0.01335
G1 X153.183 Y93.934 E1.80179
G1 X153.183 Y94.302 E0.01335
G1 X202.817 Y94.302 E1.80179
G1 X202.817 Y94.669 E0.01335
G1 X153.183 Y94.669 E1.80179
G1 X153.183 Y95.037 E0.01335
G1 X202.817 Y95.037 E1.80179
G1 X202.817 Y95.404 E0.01335
G1 X153.183 Y95.404 E1.80179
G1 X153.183 Y95.772 E0.01335
G1 X202.817 Y95.772 E1.80179
G1 X202.817 Y96.140 E0.01335
G1 X153.183 Y96.140 E1.80179
G1 X153.183 Y96.507 E0.01335
G1 X202.817 Y96.507 E1.80179
G1 X202.817 Y96.875 E0.01335
G1 X153.183 Y96.875 E1.80179
G1 X153.183 Y97.243 E0.01335
G1 X202.817 Y97.243 E1.80179
G1 X202.817 Y97.610 E0.01335
G1 X153.183 Y97.610 E1.80179
G1 X153.183 Y97.978 E0.01335
G1 X202.817 Y97.978 E1.80179
G1 X202.817 Y98.346 E0.01335
G1 X153.183 Y98.346 E1.80179
G1 X153.183 Y98.713 E0.01335
G1 X202.817 Y98.713 E1.80179
G1 X202.817 Y99.081 E0.01335
G1 X153.183 Y99.081 E1.80179
G1 X153.183 Y99.449 E0.01335
G1 X202.817 Y99.449 E1.80179
G1 X202.817 Y99.816 E0.01335
G1 X153.183 Y99.816 E1.80179
G1 X153.183 Y100.184 E0.01335
G1 X202.817 Y100.184 E1.80179
G1 X202.817 Y100.552 E0.01335
G1 X153.183 Y100.552 E1.80179
G1 X153.183 Y100.919 E0.01335
G1 X202.817 Y100.919 E1.80179
G1 X202.817 Y101.287 E0.01335
G1 X153.183 Y101.287 E1.80179
G1 X153.183 Y101.654 E0.01335
G1 X202.817 Y101.654 E1.80179
G1 X202.817 Y102.022 E0.01335
G1 X153.183 Y102.022 E1.80179
G1 X153.183 Y102.390 E0.01335
G1 X202.817 Y102.390 E1.80179
G1 X202.817 Y102.757 E0.01335
G1 X153.183 Y102.757 E1.80179
G1 X153.183 Y103.125 E0.01335
G1 X202.817 Y103.125 E1.80179
G1 X202.817 Y103.493 E0.01335
G1 X153.183 Y103.493 E1.80179
G1 X153.183 Y103.860 E0.01335
G1 X202.817 Y103.860 E1.80179
G1 X202.817 Y104.228 E0.01335
G1 X153.183 Y104.228 E1.80179
G1 X153.183 Y104.596 E0.01335
G1 X202.817 Y104.596 E1.80179
G1 X202.817 Y104.963 E0.01335
G1 X153.183 Y104.963 E1.80179
G1 X153.183 Y105.331 E0.01335
G1 X202.817 Y105.331 E1.80179
G1 X202.817 Y105.699 E0.01335
G1 X153.183 Y105.699 E1.80179
G1 X153.183 Y106.066 E0.01335
G1 X202.817 Y106.066 E1.80179
G1 X202.817 Y106.434 E0.01335
G1 X153.183 Y106.434 E1.80179
G1 X153.183 Y106.802 E0.01335
G1 X202.817 Y106.802 E1.80179
G1 X202.817 Y107.169 E0.01335
G1 X153.183 Y107.169 E1.80179
G1 X153.183 Y107.537 E0.01335
G1 X202.817 Y107.537 E1.80179
G1 X202.817 Y107.904 E0.01335
G1 X153.183 Y107.904 E1.80179
G1 X153.183 Y108.272 E0.01335
G1 X202.817 Y108.272 E1.80179
G1 X202.817 Y108.640 E0.01335
G1 X153.183 Y108.640 E1.80179
G1 X153.183 Y109.007 E0.01335
G1 X202.817 Y109.007 E1.80179
G1 X202.817 Y109.375 E0.01335
G1 X153.183 Y109.375 E1.80179
G1 X153.183 Y109.743 E0.01335
G1 X202.817 Y109.743 E1.80179
G1 X202.817 Y110.110 E0.01335
G1 X153.183 Y110.110 E1.80179
G1 X153.183 Y110.478 E0.01335
G1 X202.817 Y110.478 E1.80179
G1 X202.817 Y110.846 E0.01335
G1 X153.183 Y110.846 E1.80179
G1 X153.183 Y111.213 E0.01335
G1 X202.817 Y111.213 E1.80179
G1 X202.817 Y111.581 E0.01335
G1 X153.183 Y111.581 E1.80179
G1 X153.183 Y111.949 E0.01335
G1 X202.817 Y111.949 E1.80179
G1 X202.817 Y112.316 E0.01335
G1 X153.183 Y112.316 E1.80179
G1 X153.183 Y112.684 E0.01335
